web/themes/custom/oh_my_pasta/images/icons/googleplay.svg

<svg width="135" height="41" viewBox="0 0 135 41" fill="none" xmlns="http://www.w3.org/2000/svg">
<g clip-path="url(#clip0_1300_694)">
<path d="M130 0.333008H5C2.23858 0.333008 0 2.57158 0 5.33301V35.333C0 38.0944 2.23858 40.333 5 40.333H130C132.761 40.333 135 38.0944 135 35.333V5.33301C135 2.57158 132.761 0.333008 130 0.333008Z" fill="black"/>
<path d="M130 1.13301C132.32 1.13301 134.2 3.01301 134.2 5.33301V35.333C134.2 37.653 132.32 39.533 130 39.533H5C2.68 39.533 0.8 37.653 0.8 35.333V5.33301C0.8 3.01301 2.68 1.13301 5 1.13301H130ZM130 0.333008H5C2.25 0.333008 0 2.58301 0 5.33301V35.333C0 38.083 2.25 40.333 5 40.333H130C132.75 40.333 135 38.083 135 35.333V5.33301C135 2.58301 132.75 0.333008 130 0.333008Z" fill="#A6A6A6"/>
<path d="M47.42 10.573C47.42 11.413 47.17 12.083 46.67 12.573C46.11 13.163 45.38 13.463 44.47 13.463C43.56 13.463 42.86 13.163 42.26 12.563C41.66 11.963 41.36 11.213 41.36 10.333C41.36 9.45299 41.66 8.70299 42.26 8.10299C42.86 7.50299 43.6 7.19299 44.47 7.19299C44.91 7.19299 45.33 7.27299 45.72 7.42299C46.11 7.58299 46.43 7.80299 46.68 8.08299L46.13 8.63299C45.95 8.41299 45.71 8.23299 45.41 8.11299C45.12 7.98299 44.8 7.92299 44.47 7.92299C43.82 7.92299 43.26 8.15299 42.81 8.60299C42.36 9.06299 42.14 9.63299 42.14 10.323C42.14 11.013 42.36 11.583 42.81 12.043C43.26 12.493 43.81 12.723 44.47 12.723C45.07 12.723 45.56 12.553 45.96 12.223C46.36 11.893 46.59 11.423 46.65 10.843H44.47V10.123H47.38C47.41 10.283 47.42 10.433 47.42 10.573Z" fill="white" stroke="white" stroke-width="0.2" stroke-miterlimit="10"/>
<path d="M52.03 7.33301V8.07301H49.3V9.97301H51.76V10.693H49.3V12.593H52.03V13.333H48.53V7.33301H52.03Z" fill="white" stroke="white" stroke-width="0.2" stroke-miterlimit="10"/>
<path d="M55.28 8.07301V13.333H54.51V8.07301H52.83V7.33301H56.95V8.07301H55.27H55.28Z" fill="white" stroke="white" stroke-width="0.2" stroke-miterlimit="10"/>
<path d="M60.7099 13.333H59.9399V7.33301H60.7099V13.333Z" fill="white" stroke="white" stroke-width="0.2" stroke-miterlimit="10"/>
<path d="M64.1301 8.07301V13.333H63.3601V8.07301H61.6801V7.33301H65.8001V8.07301H64.1201H64.1301Z" fill="white" stroke="white" stroke-width="0.2" stroke-miterlimit="10"/>
<path d="M74.4901 10.333C74.4901 11.223 74.1901 11.963 73.6001 12.563C73.0001 13.163 72.2701 13.463 71.4001 13.463C70.5301 13.463 69.8001 13.163 69.2001 12.563C68.6101 11.963 68.3101 11.223 68.3101 10.333C68.3101 9.44299 68.6101 8.70299 69.2001 8.10299C69.7901 7.50299 70.5201 7.19299 71.4001 7.19299C72.2801 7.19299 73.0001 7.49299 73.6001 8.10299C74.1901 8.70299 74.4901 9.44299 74.4901 10.323V10.333ZM69.1101 10.333C69.1101 11.023 69.3301 11.603 69.7601 12.053C70.2001 12.503 70.7501 12.733 71.4001 12.733C72.0501 12.733 72.6001 12.503 73.0301 12.053C73.4701 11.603 73.6901 11.033 73.6901 10.333C73.6901 9.63299 73.4701 9.06299 73.0301 8.61299C72.5901 8.16299 72.0501 7.93299 71.4001 7.93299C70.7501 7.93299 70.2001 8.16299 69.7601 8.61299C69.3201 9.06299 69.1101 9.64299 69.1101 10.333Z" fill="white" stroke="white" stroke-width="0.2" stroke-miterlimit="10"/>
<path d="M76.3399 13.333H75.5699V7.33301H76.5099L79.4299 12.003H79.4599L79.4299 10.843V7.33301H80.1999V13.333H79.3999L76.3499 8.44301H76.3199L76.3499 9.60301V13.343L76.3399 13.333Z" fill="white" stroke="white" stroke-width="0.2" stroke-miterlimit="10"/>
<path d="M68.14 22.083C65.79 22.083 63.87 23.873 63.87 26.333C63.87 28.793 65.79 30.583 68.14 30.583C70.49 30.583 72.4101 28.783 72.4101 26.333C72.4101 23.883 70.49 22.083 68.14 22.083ZM68.14 28.913C66.85 28.913 65.74 27.853 65.74 26.333C65.74 24.813 66.85 23.753 68.14 23.753C69.43 23.753 70.5401 24.803 70.5401 26.333C70.5401 27.863 69.43 28.913 68.14 28.913ZM58.8301 22.083C56.4801 22.083 54.5601 23.873 54.5601 26.333C54.5601 28.793 56.4801 30.583 58.8301 30.583C61.1801 30.583 63.1 28.783 63.1 26.333C63.1 23.883 61.1801 22.083 58.8301 22.083ZM58.8301 28.913C57.5401 28.913 56.43 27.853 56.43 26.333C56.43 24.813 57.5401 23.753 58.8301 23.753C60.1201 23.753 61.23 24.803 61.23 26.333C61.23 27.863 60.1201 28.913 58.8301 28.913ZM47.75 23.383V25.183H52.07C51.94 26.193 51.6 26.943 51.09 27.453C50.46 28.083 49.48 28.773 47.76 28.773C45.1 28.773 43.0201 26.633 43.0201 23.973C43.0201 21.313 45.1 19.173 47.76 19.173C49.19 19.173 50.24 19.733 51.01 20.463L52.28 19.193C51.2 18.163 49.7701 17.373 47.75 17.373C44.11 17.373 41.05 20.333 41.05 23.983C41.05 27.633 44.11 30.593 47.75 30.593C49.72 30.593 51.2001 29.953 52.3601 28.743C53.5501 27.553 53.92 25.873 53.92 24.523C53.92 24.103 53.89 23.713 53.82 23.393H47.75V23.383ZM93.06 24.783C92.71 23.833 91.63 22.073 89.42 22.073C87.21 22.073 85.4101 23.793 85.4101 26.323C85.4101 28.703 87.21 30.573 89.63 30.573C91.58 30.573 92.71 29.383 93.17 28.693L91.7201 27.723C91.2401 28.433 90.58 28.903 89.63 28.903C88.68 28.903 88 28.473 87.57 27.613L93.2601 25.263L93.07 24.783H93.06ZM87.2601 26.203C87.2101 24.563 88.5301 23.723 89.4801 23.723C90.2201 23.723 90.85 24.093 91.06 24.623L87.2601 26.203ZM82.64 30.323H84.5101V17.823H82.64V30.323ZM79.5801 23.023H79.52C79.1 22.523 78.3 22.073 77.28 22.073C75.15 22.073 73.2 23.943 73.2 26.343C73.2 28.743 75.15 30.583 77.28 30.583C78.29 30.583 79.1 30.133 79.52 29.613H79.5801V30.223C79.5801 31.853 78.71 32.723 77.31 32.723C76.17 32.723 75.46 31.903 75.17 31.213L73.5401 31.893C74.0101 33.023 75.25 34.403 77.31 34.403C79.5 34.403 81.35 33.113 81.35 29.973V22.333H79.5801V23.023ZM77.4401 28.903C76.1501 28.903 75.07 27.823 75.07 26.343C75.07 24.863 76.1501 23.753 77.4401 23.753C78.7301 23.753 79.71 24.853 79.71 26.343C79.71 27.833 78.7101 28.903 77.4401 28.903ZM101.82 17.823H97.35V30.323H99.2201V25.583H101.83C103.9 25.583 105.93 24.083 105.93 21.703C105.93 19.323 103.9 17.823 101.83 17.823H101.82ZM101.87 23.853H99.2201V19.563H101.87C103.27 19.563 104.06 20.723 104.06 21.703C104.06 22.683 103.27 23.843 101.87 23.843V23.853ZM113.4 22.053C112.05 22.053 110.65 22.653 110.07 23.963L111.73 24.653C112.08 23.963 112.74 23.733 113.43 23.733C114.39 23.733 115.38 24.313 115.39 25.343V25.473C115.05 25.283 114.33 24.993 113.44 24.993C111.65 24.993 109.84 25.973 109.84 27.803C109.84 29.473 111.3 30.553 112.94 30.553C114.19 30.553 114.89 29.993 115.32 29.333H115.38V30.293H117.18V25.503C117.18 23.283 115.52 22.043 113.38 22.043L113.4 22.053ZM113.17 28.903C112.56 28.903 111.71 28.593 111.71 27.843C111.71 26.883 112.77 26.513 113.69 26.513C114.51 26.513 114.9 26.693 115.39 26.933C115.25 28.093 114.25 28.913 113.17 28.913V28.903ZM123.75 22.323L121.61 27.743H121.55L119.33 22.323H117.32L120.65 29.903L118.75 34.113H120.7L125.83 22.323H123.76H123.75ZM106.94 30.323H108.81V17.823H106.94V30.323Z" fill="white"/>
<path d="M20.7199 19.753L10.0699 31.053C10.3999 32.283 11.5199 33.183 12.8499 33.183C13.3799 33.183 13.8799 33.043 14.3099 32.783L14.3399 32.763L26.3199 25.853L20.7099 19.743L20.7199 19.753Z" fill="#EA4335"/>
<path d="M31.49 17.833H31.48L26.31 14.823L20.48 20.013L26.33 25.863L31.48 22.893C32.38 22.403 32.99 21.453 32.99 20.363C32.99 19.273 32.39 18.323 31.49 17.843V17.833Z" fill="#FBBC04"/>
<path d="M10.07 9.61304C10.01 9.85304 9.96997 10.093 9.96997 10.353V30.323C9.96997 30.583 9.99997 30.823 10.07 31.063L21.08 20.053L10.07 9.61304Z" fill="#4285F4"/>
<path d="M20.7999 20.333L26.3099 14.823L14.3399 7.88302C13.9099 7.62302 13.3999 7.47302 12.8499 7.47302C11.5199 7.47302 10.3999 8.38302 10.0699 9.60302L20.7999 20.323V20.333Z" fill="#058939"/>
</g>
<defs>
<clipPath id="clip0_1300_694">
<rect width="135" height="40" fill="white" transform="translate(0 0.333008)"/>
</clipPath>
</defs>
</svg>

<svg width="135" height="41" fill="none" xmlns="http://www.w3.org/2000/svg"><g clip-path="url(#clip0_1300_694)"><path d="M130 .333H5a5 5 0 00-5 5v30a5 5 0 005 5h125a5 5 0 005-5v-30a5 5 0 00-5-5z" fill="#000"/><path d="M130 1.133a4.2 4.2 0 014.2 4.2v30a4.2 4.2 0 01-4.2 4.2H5a4.2 4.2 0 01-4.2-4.2v-30a4.2 4.2 0 014.2-4.2h125zm0-.8H5c-2.75 0-5 2.25-5 5v30c0 2.75 2.25 5 5 5h125c2.75 0 5-2.25 5-5v-30c0-2.75-2.25-5-5-5z" fill="#A6A6A6"/><path d="M47.42 10.573c0 .84-.25 1.51-.75 2-.56.59-1.29.89-2.2.89-.91 0-1.61-.3-2.21-.9-.6-.6-.9-1.35-.9-2.23 0-.88.3-1.63.9-2.23.6-.6 1.34-.91 2.21-.91.44 0 .86.08 1.25.23.39.16.71.38.96.66l-.55.55c-.18-.22-.42-.4-.72-.52a2.29 2.29 0 00-.94-.19c-.65 0-1.21.23-1.66.68-.45.46-.67 1.03-.67 1.72s.22 1.26.67 1.72c.45.45 1 .68 1.66.68.6 0 1.09-.17 1.49-.5.4-.33.63-.8.69-1.38h-2.18v-.72h2.91c.03.16.04.31.04.45zm4.61-3.24v.74H49.3v1.9h2.46v.72H49.3v1.9h2.73v.74h-3.5v-6h3.5zm3.25.74v5.26h-.77v-5.26h-1.68v-.74h4.12v.74h-1.68.01zm5.43 5.26h-.77v-6h.77v6zm3.42-5.26v5.26h-.77v-5.26h-1.68v-.74h4.12v.74h-1.68.01zm10.36 2.26c0 .89-.3 1.63-.89 2.23-.6.6-1.33.9-2.2.9-.87 0-1.6-.3-2.2-.9-.59-.6-.89-1.34-.89-2.23 0-.89.3-1.63.89-2.23.59-.6 1.32-.91 2.2-.91.88 0 1.6.3 2.2.91.59.6.89 1.34.89 2.22v.01zm-5.38 0c0 .69.22 1.27.65 1.72.44.45.99.68 1.64.68.65 0 1.2-.23 1.63-.68.44-.45.66-1.02.66-1.72s-.22-1.27-.66-1.72c-.44-.45-.98-.68-1.63-.68-.65 0-1.2.23-1.64.68-.44.45-.65 1.03-.65 1.72zm7.23 3h-.77v-6h.94l2.92 4.67h.03l-.03-1.16v-3.51h.77v6h-.8l-3.05-4.89h-.03l.03 1.16v3.74l-.01-.01z" fill="#fff" stroke="#fff" stroke-width=".2" stroke-miterlimit="10"/><path d="M68.14 22.083c-2.35 0-4.27 1.79-4.27 4.25s1.92 4.25 4.27 4.25c2.35 0 4.27-1.8 4.27-4.25s-1.92-4.25-4.27-4.25zm0 6.83c-1.29 0-2.4-1.06-2.4-2.58s1.11-2.58 2.4-2.58c1.29 0 2.4 1.05 2.4 2.58s-1.11 2.58-2.4 2.58zm-9.31-6.83c-2.35 0-4.27 1.79-4.27 4.25s1.92 4.25 4.27 4.25c2.35 0 4.27-1.8 4.27-4.25s-1.92-4.25-4.27-4.25zm0 6.83c-1.29 0-2.4-1.06-2.4-2.58s1.11-2.58 2.4-2.58c1.29 0 2.4 1.05 2.4 2.58s-1.11 2.58-2.4 2.58zm-11.08-5.53v1.8h4.32c-.13 1.01-.47 1.76-.98 2.27-.63.63-1.61 1.32-3.33 1.32-2.66 0-4.74-2.14-4.74-4.8 0-2.66 2.08-4.8 4.74-4.8 1.43 0 2.48.56 3.25 1.29l1.27-1.27c-1.08-1.03-2.51-1.82-4.53-1.82-3.64 0-6.7 2.96-6.7 6.61 0 3.65 3.06 6.61 6.7 6.61 1.97 0 3.45-.64 4.61-1.85 1.19-1.19 1.56-2.87 1.56-4.22 0-.42-.03-.81-.1-1.13h-6.07v-.01zm45.31 1.4c-.35-.95-1.43-2.71-3.64-2.71s-4.01 1.72-4.01 4.25c0 2.38 1.8 4.25 4.22 4.25 1.95 0 3.08-1.19 3.54-1.88l-1.45-.97c-.48.71-1.14 1.18-2.09 1.18s-1.63-.43-2.06-1.29l5.69-2.35-.19-.48h-.01zm-5.8 1.42c-.05-1.64 1.27-2.48 2.22-2.48.74 0 1.37.37 1.58.9l-3.8 1.58zm-4.62 4.12h1.87v-12.5h-1.87v12.5zm-3.06-7.3h-.06c-.42-.5-1.22-.95-2.24-.95-2.13 0-4.08 1.87-4.08 4.27 0 2.4 1.95 4.24 4.08 4.24 1.01 0 1.82-.45 2.24-.97h.06v.61c0 1.63-.87 2.5-2.27 2.5-1.14 0-1.85-.82-2.14-1.51l-1.63.68c.47 1.13 1.71 2.51 3.77 2.51 2.19 0 4.04-1.29 4.04-4.43v-7.64h-1.77v.69zm-2.14 5.88c-1.29 0-2.37-1.08-2.37-2.56s1.08-2.59 2.37-2.59 2.27 1.1 2.27 2.59c0 1.49-1 2.56-2.27 2.56zm24.38-11.08h-4.47v12.5h1.87v-4.74h2.61c2.07 0 4.1-1.5 4.1-3.88s-2.03-3.88-4.1-3.88h-.01zm.05 6.03h-2.65v-4.29h2.65c1.4 0 2.19 1.16 2.19 2.14 0 .98-.79 2.14-2.19 2.14v.01zm11.53-1.8c-1.35 0-2.75.6-3.33 1.91l1.66.69c.35-.69 1.01-.92 1.7-.92.96 0 1.95.58 1.96 1.61v.13c-.34-.19-1.06-.48-1.95-.48-1.79 0-3.6.98-3.6 2.81 0 1.67 1.46 2.75 3.1 2.75 1.25 0 1.95-.56 2.38-1.22h.06v.96h1.8v-4.79c0-2.22-1.66-3.46-3.8-3.46l.02.01zm-.23 6.85c-.61 0-1.46-.31-1.46-1.06 0-.96 1.06-1.33 1.98-1.33.82 0 1.21.18 1.7.42a2.257 2.257 0 01-2.22 1.98v-.01zm10.58-6.58l-2.14 5.42h-.06l-2.22-5.42h-2.01l3.33 7.58-1.9 4.21h1.95l5.13-11.79h-2.08zm-16.81 8h1.87v-12.5h-1.87v12.5z" fill="#fff"/><path d="M20.72 19.753l-10.65 11.3a2.877 2.877 0 004.24 1.73l.03-.02 11.98-6.91-5.61-6.11.01.01z" fill="#EA4335"/><path d="M31.49 17.833h-.01l-5.17-3.01-5.83 5.19 5.85 5.85 5.15-2.97a2.88 2.88 0 001.51-2.53c0-1.09-.6-2.04-1.5-2.52v-.01z" fill="#FBBC04"/><path d="M10.07 9.613c-.06.24-.1.48-.1.74v19.97c0 .26.03.5.1.74l11.01-11.01-11.01-10.44z" fill="#4285F4"/><path d="M20.8 20.333l5.51-5.51-11.97-6.94a2.889 2.889 0 00-4.27 1.72l10.73 10.72v.01z" fill="#058939"/></g><defs><clipPath id="clip0_1300_694"><path fill="#fff" transform="translate(0 .333)" d="M0 0h135v40H0z"/></clipPath></defs></svg>
